X:1
T:Title
%%score { ( 1 3 ) | ( 2 4 ) }
L:1/8
M:4/4
K:Bb
V:1 treble nm="Grand Piano"
V:3 treble 
V:2 bass 
V:4 bass 
V:1
 z4 z2[Q:1/4=106] [DF]>[DF] | [DB]>[DB] [DB]>[DB] [DB]>[Ec] [Fd]>[DB] |[M:3/4] G>G G>G G2 | %3
[M:1/4] [FA]>[EG] |[M:4/4] [DF]4 [DB]2 [DB]>[Fd] | d4 c2 F>F | %6
[M:3/4] [DB]>[DB] [DB]>[DB] [DB]>[Ec] |[M:1/4] [Fd]>[DB] |[M:4/4] G>G G>G G2 A>G | F4 B2 B>d | %10
[M:3/4] c4 [DB]2 |[M:1/4] B>c |[M:4/4] z2 e4 z2 | d2 c4 A>B | z2 d4 z2 | [Ec]2 [DB]4 [FB]>[FA] | %16
 G>G G>G A2 G>G | [DF]>[DF] [DF]>[DF] [Fd]2 [Fd]>[Fd] | z2 [Fc]4 z2 |[M:3/4] [Ec]2 [DB]4 |] %20
V:2
 z4 z2 [B,,B,]>[B,,B,] | [B,,F,]>[B,,F,] [B,,F,]>[B,,F,] [B,,F,]>[B,,F,] [B,,B,]>[B,,B,] | %2
[M:3/4] [E,B,E]>[E,B,E] [E,B,E]>[E,B,E] [E,B,E]2 |[M:1/4] [E,C]>[E,B,] | %4
[M:4/4] [B,,B,]4 [B,,F,]2 [B,,F,]>[B,,B,] | [F,B,F]4 [F,A,F]2 [F,A,E]>[F,A,E] | %6
[M:3/4] [B,,F,]>[B,,F,] [B,,F,]>[B,,F,] [B,,F,]>[B,,F,] |[M:1/4] [B,,B,]>[B,,B,] | %8
[M:4/4] [E,B,E]>[E,B,E] [E,B,E]>[E,B,E] [E,B,E]2 [E,CF]>[E,B,E] | %9
 [F,B,D]4 [F,B,D]2 [F,B,D]>[F,B,F] |[M:3/4] [F,A,E]4 [B,,B,]2 |[M:1/4] [B,D]>[B,E] | %12
[M:4/4][K:treble] z2 G4 z2[K:bass] | [F,B,F]2 [F,A,F]4 [F,CE]>[F,B,D] | z2 F4 z2 | %15
 [B,,F,]2 [B,,F,]4 [D,B,]>[D,B,] | [E,B,E]>[E,B,E] [E,B,E]>[E,B,E] [E,CF]2 [E,B,E]>[E,B,E] | %17
 [B,,B,]>[B,,B,] [B,,B,]>[B,,B,] [B,,B,]2 [B,,B,]>[D,B,] | %18
 [F,B,]2 [F,A,]2 F,[F,A,E] (3[F,A,E][F,D][F,C] |[M:3/4] [B,,F,]2 [B,,F,]4 |] %20
V:3
 x8 | x8 |[M:3/4] x6 |[M:1/4] x2 |[M:4/4] x8 | x8 |[M:3/4] x6 |[M:1/4] x2 |[M:4/4] x8 | x8 | %10
[M:3/4] x6 |[M:1/4] x2 |[M:4/4] d2 z2 B,d (3dcB | x8 | c2 z2 A,c (3cBA | x8 | x8 | x8 | %18
 [Fd]2 z2 A,c (3cBA |[M:3/4] x6 |] %20
V:4
 x8 | x8 |[M:3/4] x6 |[M:1/4] x2 |[M:4/4] x8 | x8 |[M:3/4] x6 |[M:1/4] x2 |[M:4/4] x8 | x8 | %10
[M:3/4] x6 |[M:1/4] x2 |[M:4/4][K:treble] [B,F]2 B,2 z [B,F] (3[B,F][B,E][K:bass][B,D] | x8 | %14
 [F,A,E]2 [F,A,]2 F,[F,A,E] (3[F,A,E][F,D][F,C] | x8 | x8 | x8 | x8 |[M:3/4] x6 |] %20

